src/images/svg/symbols/xtz.svg

<svg width="32" height="32" viewBox="0 0 32 32" fill="none" xmlns="http://www.w3.org/2000/svg">
<path d="M0 16C0 7.16344 7.16344 0 16 0C24.8366 0 32 7.16344 32 16C32 24.8366 24.8366 32 16 32C7.16344 32 0 24.8366 0 16Z" fill="#2C7DF7"/>
<path d="M17.5389 25C16.2542 25 15.3174 24.6904 14.7265 24.0723C14.1796 23.548 13.8621 22.8294 13.844 22.0723C13.8372 21.8418 13.8903 21.6147 13.9988 21.4113C14.0994 21.2361 14.2451 21.0904 14.4203 20.9887C14.8338 20.7819 15.3197 20.7819 15.7333 20.9887C15.9084 21.0893 16.053 21.235 16.1525 21.4113C16.2632 21.6136 16.3186 21.8418 16.3129 22.0723C16.3242 22.348 16.2451 22.6192 16.0881 22.8452C15.957 23.0294 15.7694 23.1672 15.5536 23.2361C15.7649 23.5051 16.0632 23.6904 16.3977 23.7627C16.7717 23.8712 17.1581 23.9265 17.5479 23.9288C18.0632 23.9333 18.5682 23.7819 18.9965 23.496C19.4406 23.1819 19.7716 22.7333 19.9411 22.2158C20.1558 21.6 20.2609 20.9525 20.2507 20.3006C20.2677 19.6215 20.1535 18.9446 19.9129 18.3096C19.7321 17.8011 19.3897 17.3661 18.9366 17.0723C18.5163 16.8068 18.0281 16.6667 17.531 16.67C17.0971 16.7073 16.679 16.8486 16.3129 17.0836L15.4101 17.5367V17.0836L19.4688 11.6395H13.8429V17.2893C13.8271 17.6972 13.9344 18.0994 14.1525 18.4452C14.366 18.7514 14.7254 18.9232 15.0971 18.8983C15.4361 18.8915 15.7626 18.7763 16.0304 18.5695C16.3344 18.3469 16.5988 18.0746 16.8123 17.765C16.8315 17.7107 16.8666 17.6633 16.914 17.6305C16.9513 17.5977 16.9999 17.5797 17.0496 17.5797C17.1468 17.5887 17.2394 17.6282 17.314 17.6926C17.4078 17.7977 17.4587 17.9345 17.4575 18.0746C17.4462 18.1695 17.4293 18.2633 17.4067 18.3559C17.2067 18.8395 16.8722 19.2554 16.4417 19.5537C16.0429 19.8237 15.5705 19.9672 15.0881 19.965C13.87 19.965 13.0271 19.7254 12.557 19.2452C12.07 18.7096 11.818 18 11.8599 17.2768V11.6384H9V10.5887H11.8745V8.19548L11.2169 7.53672V7H13.1265L13.844 7.37175V10.5887L21.2744 10.5661L22.0145 11.3085L17.4575 15.887C17.7332 15.7763 18.0225 15.7062 18.3185 15.6791C18.9027 15.7051 19.4733 15.8678 19.984 16.1548C20.575 16.435 21.0722 16.8802 21.4179 17.435C21.7275 17.9051 21.9467 18.4282 22.0654 18.9785C22.1626 19.4124 22.2134 19.8554 22.2202 20.3006C22.2236 21.1491 22.0304 21.9876 21.6575 22.7503C21.3038 23.4881 20.7083 24.0836 19.9705 24.4373C19.2134 24.8102 18.3818 25.0022 17.5389 25Z" fill="white"/>
</svg>

<svg width="32" height="32" fill="none" xmlns="http://www.w3.org/2000/svg"><path d="M0 16C0 7.163 7.163 0 16 0s16 7.163 16 16-7.163 16-16 16S0 24.837 0 16Z" fill="#2C7DF7"/><path d="M17.539 25c-1.285 0-2.222-.31-2.813-.928a2.865 2.865 0 0 1-.882-2 1.32 1.32 0 0 1 .155-.66c.1-.176.246-.322.421-.423.414-.207.9-.207 1.313 0 .175.1.32.246.42.422.11.203.166.43.16.661.011.276-.068.547-.225.773a1.048 1.048 0 0 1-.534.391c.21.27.51.454.844.527.374.108.76.163 1.15.166a2.57 2.57 0 0 0 1.449-.433c.444-.314.775-.763.944-1.28a5.55 5.55 0 0 0 .31-1.915 5.25 5.25 0 0 0-.338-1.991 2.453 2.453 0 0 0-.976-1.238 2.601 2.601 0 0 0-1.406-.402 2.678 2.678 0 0 0-1.218.414l-.903.453v-.453l4.059-5.444h-5.626v5.65c-.016.407.091.81.31 1.155.213.306.572.478.944.453.34-.006.666-.122.933-.328.304-.223.569-.495.782-.805a.274.274 0 0 1 .102-.134.206.206 0 0 1 .136-.051c.097.009.19.048.264.113a.567.567 0 0 1 .143.382 2.365 2.365 0 0 1-.05.28c-.2.485-.535.9-.965 1.199-.4.27-.872.413-1.354.411-1.218 0-2.06-.24-2.531-.72a2.695 2.695 0 0 1-.697-1.968v-5.639H9v-1.05h2.874V8.196l-.657-.658V7h1.91l.717.372v3.217l7.43-.023.74.742-4.556 4.579c.275-.11.565-.18.86-.208a3.74 3.74 0 0 1 1.666.476c.591.28 1.088.725 1.434 1.28.31.47.529.993.647 1.544a6.5 6.5 0 0 1 .155 1.322 5.529 5.529 0 0 1-.563 2.45 3.595 3.595 0 0 1-1.686 1.686 5.468 5.468 0 0 1-2.432.563Z" fill="#fff"/></svg>
